build/assets/images/svg/icons/yes.svg

<svg width="24" height="24" viewBox="0 0 24 24" fill="none" xmlns="http://www.w3.org/2000/svg">
<path d="M15.6754 10.7382C16.0827 10.3652 16.1105 9.73261 15.7375 9.32533C15.3644 8.91805 14.7319 8.89027 14.3246 9.26328L10.6325 12.6447L9.6754 11.7681C9.26812 11.3951 8.63557 11.4229 8.26255 11.8302C7.88954 12.2374 7.91732 12.87 8.3246 13.243L9.95712 14.7382C10.3393 15.0883 10.9257 15.0883 11.3079 14.7382L15.6754 10.7382Z" fill="#6FBD15"/>
<path fill-rule="evenodd" clip-rule="evenodd" d="M12 2.00073C6.47715 2.00073 2 6.47789 2 12.0007C2 17.5236 6.47715 22.0007 12 22.0007C17.5228 22.0007 22 17.5236 22 12.0007C22 6.47789 17.5228 2.00073 12 2.00073ZM4 12.0007C4 7.58245 7.58172 4.00073 12 4.00073C16.4183 4.00073 20 7.58245 20 12.0007C20 16.419 16.4183 20.0007 12 20.0007C7.58172 20.0007 4 16.419 4 12.0007Z" fill="#6FBD15"/>
</svg>

<svg width="24" height="24" fill="none" xmlns="http://www.w3.org/2000/svg"><path d="M15.675 10.738a1 1 0 10-1.35-1.475l-3.692 3.382-.958-.877a1 1 0 00-1.35 1.475l1.632 1.495a1 1 0 001.35 0l4.368-4z" fill="#6FBD15"/><path fill-rule="evenodd" clip-rule="evenodd" d="M12 2C6.477 2 2 6.479 2 12c0 5.524 4.477 10 10 10s10-4.476 10-10c0-5.522-4.477-10-10-10zM4 12a8 8 0 1116 0 8 8 0 01-16 0z" fill="#6FBD15"/></svg>
